packages/sources/icons/src/vitamix/snapchat-line.svg

<svg width="16" height="16" viewBox="0 0 16 16" fill="none" xmlns="http://www.w3.org/2000/svg">
<path fill-rule="evenodd" clip-rule="evenodd" d="M3.71003 7.07222C3.60716 7.02676 3.5134 6.98533 3.38731 6.98533C3.28119 6.98747 3.17626 7.00823 3.07731 7.04667C2.82598 7.15133 2.68931 7.37333 2.68931 7.53333C2.68931 8.00555 3.43316 8.23304 3.5649 8.27333C3.57154 8.27536 3.57662 8.27691 3.57998 8.278C3.5914 8.28178 3.6031 8.28562 3.61504 8.28955C3.86011 8.37011 4.20441 8.48328 4.29531 8.70133C4.34198 8.82067 4.32265 8.97 4.23465 9.154C4.23164 9.16027 4.22809 9.16776 4.224 9.17641C4.08653 9.46678 3.33167 11.0613 1.61998 11.374C1.46465 11.402 1.35931 11.5387 1.35931 11.6953C1.35931 11.9193 1.59998 12.1047 1.84331 12.2147C2.13931 12.348 2.57398 12.4667 3.14465 12.5567C3.16489 12.5967 3.21753 12.813 3.25807 12.9795C3.27626 13.0543 3.29202 13.119 3.30131 13.1533C3.38778 13.4739 3.69273 13.4186 3.87682 13.3852C3.9113 13.3789 3.94154 13.3734 3.96531 13.3713C3.99471 13.3686 4.03556 13.3613 4.08674 13.3521C4.2967 13.3146 4.68064 13.246 5.16198 13.3333C5.48931 13.3927 5.77131 13.5853 6.09265 13.8173C6.12191 13.838 6.15115 13.8589 6.1805 13.8798C6.62793 14.1988 7.09891 14.5347 7.99731 14.5347C8.91878 14.5347 9.4178 14.1809 9.87805 13.8546C9.89563 13.8421 9.91316 13.8297 9.93065 13.8173C10.252 13.5853 10.5393 13.3913 10.8606 13.3333C11.2584 13.2716 11.6641 13.2824 12.058 13.3653C12.0643 13.3667 12.0715 13.3682 12.0794 13.37C12.2283 13.4026 12.6332 13.4912 12.7186 13.148C12.736 13.0789 12.7529 13.0096 12.769 12.9438C12.8151 12.7546 12.854 12.5953 12.8753 12.5567C13.4493 12.4667 13.8813 12.3533 14.1766 12.22C14.414 12.11 14.6606 11.92 14.6606 11.6987C14.6606 11.5373 14.5566 11.4 14.4 11.3767C12.62 11.0813 11.782 9.16467 11.78 9.15933C11.69 8.974 11.6693 8.82333 11.7186 8.70733C11.8133 8.48112 12.1792 8.36517 12.4252 8.2872L12.4353 8.284C12.7666 8.178 13.322 7.94733 13.322 7.53333C13.322 7.36467 13.1233 6.98467 12.6666 6.98467C12.4272 6.98467 12.3106 7.03909 12.1971 7.09208C12.0894 7.14235 11.9845 7.19133 11.78 7.19133C11.7154 7.19239 11.6515 7.17751 11.594 7.148C11.5945 7.14093 11.5955 7.12925 11.5968 7.11312C11.611 6.94369 11.666 6.28392 11.666 5.33733C11.666 4.272 11.2226 3.53533 10.632 2.98533C10.0413 2.43533 9.21065 2 7.99731 2C6.78331 2 5.92865 2.43333 5.37998 2.98267C4.83131 3.532 4.35131 4.2 4.35131 5.32533C4.35131 5.82067 4.41131 7.04067 4.41731 7.14467C4.37331 7.16533 4.30465 7.18867 4.19998 7.18867C3.97358 7.18867 3.83507 7.12747 3.71003 7.07222ZM10.2773 6.88733L10.264 7.05333V7.05267C10.2392 7.40016 10.3515 7.74354 10.5767 8.00933C10.5453 8.06667 10.5153 8.128 10.4887 8.19333C10.2667 8.714 10.338 9.24133 10.58 9.74067C10.832 10.2638 11.1568 10.7486 11.5447 11.1807C11.6744 11.3246 11.8114 11.4616 11.9553 11.5913C11.841 11.6999 11.7469 11.8279 11.6773 11.9693C11.3301 11.945 10.9813 11.9616 10.638 12.0187C10.0887 12.1173 9.73466 12.3147 9.15066 12.736L9.01266 12.8333C8.60399 13.1207 8.40333 13.2013 7.99733 13.2013C7.59999 13.2013 7.42799 13.1307 7.01533 12.8373L6.87333 12.736L6.86266 12.7287C6.28266 12.3107 5.93999 12.1187 5.39999 12.0213C5.05161 11.9573 4.69616 11.9407 4.34333 11.972C4.27461 11.8313 4.18163 11.7038 4.06866 11.5953C4.21936 11.4607 4.36226 11.3176 4.49666 11.1667C4.94933 10.6593 5.17533 10.276 5.43666 9.73067C5.66999 9.24533 5.73799 8.73067 5.53799 8.21667C5.50599 8.14133 5.47266 8.07067 5.43599 8.00533C5.65576 7.74515 5.76764 7.41072 5.74866 7.07067C5.72533 6.65467 5.68466 5.67267 5.68466 5.32533C5.68466 4.73733 5.85933 4.38867 6.32333 3.92533C6.69133 3.55667 7.23866 3.33333 7.99666 3.33333C8.75066 3.33333 9.28333 3.552 9.72333 3.96133C10.1367 4.346 10.3327 4.75667 10.3327 5.33667C10.3328 5.85405 10.3143 6.37127 10.2773 6.88733Z" fill="#001018"/>
</svg>

<svg width="16" height="16" fill="none" xmlns="http://www.w3.org/2000/svg"><path fill-rule="evenodd" clip-rule="evenodd" d="M3.71 7.072a.755.755 0 0 0-.323-.087.907.907 0 0 0-.31.062c-.251.104-.388.326-.388.486 0 .473.744.7.876.74l.015.005.035.012c.245.08.59.193.68.411.047.12.028.269-.06.453a4.422 4.422 0 0 0-.011.022c-.137.29-.892 1.885-2.604 2.198a.32.32 0 0 0-.26.321c0 .224.24.41.483.52.296.133.731.252 1.302.342.02.04.073.256.113.422l.043.174c.087.32.392.266.576.232.034-.006.065-.012.088-.014.03-.002.07-.01.122-.019.21-.037.594-.106 1.075-.019.327.06.61.252.93.484l.089.063c.447.319.918.655 1.816.655.922 0 1.42-.354 1.881-.68l.053-.038c.321-.232.608-.426.93-.484.397-.061.803-.05 1.197.032l.021.005c.15.033.554.121.64-.222l.05-.204c.046-.19.085-.349.106-.387.574-.09 1.006-.204 1.302-.337.237-.11.484-.3.484-.521 0-.162-.104-.299-.261-.322-1.78-.296-2.618-2.212-2.62-2.218-.09-.185-.11-.336-.061-.452.094-.226.46-.342.706-.42l.01-.003c.332-.106.887-.337.887-.75 0-.17-.199-.55-.655-.55a.957.957 0 0 0-.47.108c-.108.05-.212.1-.417.1a.393.393 0 0 1-.186-.044l.003-.035c.014-.17.069-.83.069-1.776 0-1.065-.443-1.802-1.034-2.352C10.042 2.435 9.211 2 7.997 2c-1.214 0-2.068.433-2.617.983-.549.549-1.029 1.217-1.029 2.342 0 .496.06 1.716.066 1.82a.496.496 0 0 1-.217.044c-.226 0-.365-.062-.49-.117zm6.567-.185-.013.166c-.025.347.088.69.313.956a1.784 1.784 0 0 0-.088.184c-.222.521-.151 1.048.091 1.548.252.523.577 1.008.965 1.44.13.144.266.28.41.41a1.334 1.334 0 0 0-.278.378 4.443 4.443 0 0 0-1.039.05c-.55.098-.903.296-1.487.717l-.138.097c-.409.288-.61.368-1.016.368-.397 0-.569-.07-.982-.364l-.142-.101-.01-.007c-.58-.418-.923-.61-1.463-.708a3.927 3.927 0 0 0-1.057-.049 1.334 1.334 0 0 0-.274-.377 5.31 5.31 0 0 0 .428-.428c.452-.508.678-.891.94-1.436.233-.486.301-1 .101-1.514a2.147 2.147 0 0 0-.102-.212c.22-.26.332-.594.313-.934a48.847 48.847 0 0 1-.064-1.746c0-.588.174-.936.638-1.4.368-.368.916-.592 1.674-.592.754 0 1.286.219 1.726.628.414.385.61.796.61 1.376 0 .517-.019 1.034-.056 1.55z" fill="#001018"/></svg>
